packages/design-system/src/icons/assets/ic_time_gray_14.svg

<svg width="14" height="15" viewBox="0 0 14 15" fill="none" xmlns="http://www.w3.org/2000/svg">
<g clip-path="url(#clip0_1056_8994)">
<path d="M7 0.300049C3.13438 0.300049 0 3.43442 0 7.30005C0 11.1657 3.13438 14.3 7 14.3C10.8656 14.3 14 11.1657 14 7.30005C14 3.43442 10.8656 0.300049 7 0.300049ZM7 13.1125C3.79063 13.1125 1.1875 10.5094 1.1875 7.30005C1.1875 4.09067 3.79063 1.48755 7 1.48755C10.2094 1.48755 12.8125 4.09067 12.8125 7.30005C12.8125 10.5094 10.2094 13.1125 7 13.1125Z" fill="#75777F"/>
<path d="M9.72969 9.27817L7.50156 7.66724V3.80005C7.50156 3.7313 7.44531 3.67505 7.37656 3.67505H6.625C6.55625 3.67505 6.5 3.7313 6.5 3.80005V8.10317C6.5 8.1438 6.51875 8.1813 6.55156 8.20474L9.13594 10.0891C9.19219 10.1297 9.27031 10.1172 9.31094 10.0625L9.75781 9.45317C9.79844 9.39536 9.78594 9.31724 9.72969 9.27817Z" fill="#75777F"/>
</g>
<defs>
<clipPath id="clip0_1056_8994">
<rect width="14" height="14" fill="white" transform="translate(0 0.300049)"/>
</clipPath>
</defs>
</svg>

<svg xmlns="http://www.w3.org/2000/svg" width="14" height="15" fill="none"><g fill="#75777F" clip-path="url(#a)"><path d="M7 .3a7 7 0 1 0 0 14.001A7 7 0 0 0 7 .3m0 12.813A5.813 5.813 0 0 1 7 1.488a5.813 5.813 0 0 1 0 11.625"/><path d="m9.73 9.278-2.228-1.61V3.8a.125.125 0 0 0-.125-.125h-.752A.125.125 0 0 0 6.5 3.8v4.303c0 .04.019.078.052.102l2.584 1.884c.056.04.134.028.175-.027l.447-.609a.125.125 0 0 0-.028-.175"/></g><defs><clipPath id="a"><path fill="#fff" d="M0 .3h14v14H0z"/></clipPath></defs></svg>
